package/converter/svg/light/file-chart-pie.svg

<svg xmlns="http://www.w3.org/2000/svg" viewBox="0 0 384 512"><!-- Font Awesome Pro 6.0.0-alpha2 by @fontawesome - https://fontawesome.com License - https://fontawesome.com/license (Commercial License) --><path d="M176 224V320C176 328.844 183.156 336 192 336H288C296.844 336 304 328.844 304 320C304 258.25 253.75 208 192 208C183.156 208 176 215.156 176 224ZM208 241.609C239.312 247.984 264 272.703 270.406 304H208V241.609ZM184 408C139.875 408 104 372.125 104 328C104 295.303 123.809 267.264 152 254.898V221.447C105.895 235.27 72 277.471 72 328C72 389.75 122.25 440 184 440C234.529 440 276.73 406.105 290.553 360H257.102C244.736 388.191 216.697 408 184 408ZM365.256 125.254L258.746 18.746C246.744 6.742 230.465 0 213.49 0H64C28.654 0 0 28.654 0 64V448C0 483.346 28.654 512 64 512H320C355.348 512 384 483.346 384 448V170.51C384 153.535 377.258 137.258 365.256 125.254ZM224 34.076C228.477 35.643 232.666 37.922 236.119 41.375L342.627 147.879C346.08 151.332 348.357 155.523 349.924 160H240C231.188 160 224 152.828 224 144V34.076ZM352 448C352 465.645 337.645 480 320 480H64C46.355 480 32 465.645 32 448V64C32 46.355 46.355 32 64 32H192V144C192 170.469 213.531 192 240 192H352V448Z"/></svg>

<svg xmlns="http://www.w3.org/2000/svg" viewBox="0 0 384 512"><!--! Font Awesome Pro 6.6.0 by @fontawesome - https://fontawesome.com License - https://fontawesome.com/license (Commercial License) Copyright 2024 Fonticons, Inc. --><path d="M320 480L64 480c-17.7 0-32-14.3-32-32L32 64c0-17.7 14.3-32 32-32l128 0 0 112c0 26.5 21.5 48 48 48l112 0 0 256c0 17.7-14.3 32-32 32zM240 160c-8.8 0-16-7.2-16-16l0-111.5c2.8 .7 5.4 2.1 7.4 4.2L347.3 152.6c2.1 2.1 3.5 4.6 4.2 7.4L240 160zM64 0C28.7 0 0 28.7 0 64L0 448c0 35.3 28.7 64 64 64l256 0c35.3 0 64-28.7 64-64l0-284.1c0-12.7-5.1-24.9-14.1-33.9L254.1 14.1c-9-9-21.2-14.1-33.9-14.1L64 0zM176 224l0 96c0 8.8 7.2 16 16 16l96 0c8.8 0 16-7.2 16-16c0-61.9-50.1-112-112-112c-8.8 0-16 7.2-16 16zm32 17.6c31.3 6.4 56 31.1 62.4 62.4L208 304l0-62.4zm-56-21C105.7 234.4 72 277.3 72 328c0 61.9 50.1 112 112 112c50.7 0 93.6-33.7 107.4-80l-34 0c-12.3 28.3-40.5 48-73.3 48c-44.2 0-80-35.8-80-80c0-32.8 19.7-61 48-73.3l0-34z"/></svg>
